X: 433
T: Tingjian gege chang yisheng
%%abc-version 2.0
%%abcx-abcm2ps-target-version 5.9.1 (29 Sep 2008)
%%abc-creator hum2abc beta
%%abcx-conversion-date 2013/10/02 07:52:30
%%abc-edited-by Helmut Schaffrath
%%humdrum-veritas 1070886870
%%humdrum-veritas-data 3187146350
%%continueall 1
%%barnumbers 0
L: 1/8
M: 2/4
K: G
B GA2- [I:setbarnb 1]| 
A B/ B/ e d/ B/ | 
A E G B/ d/ | 
G4 | 
B GA2- | 
A B/ B/ e d/ B/ | 
A E G B/ d/ | 
G G/ E/D2 |]  



